!!!SOCIAL_FUNCTION:	songs of the drum religion
!!!PDT:	1932
!!!OTL: No_93_Song_for_East_Stake_of_Drum.krn
!!!REG: Wisconsin
!!!LANG: Non-Tone
!!!LING_GROUP: Algonquin
**kern
*staff1
=1-
*clefF4
*k[f#c#g#d#]
*M2/4
16c#\LL
16c#\J
8c#\J
8c#\L
8c#\J
=2
4B\
8.B\L
16B\Jk
=3
2B\
=4!|:
*M2/4
16c#\LL
16c#\J
8c#\J
8c#\L
8c#\J
=5
8B\L
8B\J
8.B\L
16B\Jk
=6||
*M3/4
2B\
4r
=7||
*M3/8
16B\LL
16B\J
8G#\
8F#\J
=8||
*M2/4
16G#\LL
16G#\J
8F#\J
8F#\L
8F#\J
=9||
*M3/8
16E\LL
16E\J
8E\J
8r
=10||
*M2/4
16F#\LL
16F#\J
8G#\J
8G#\L
8F#\J
=11
8E\L
8E\J
8.E\L
16E\Jk
=12
4E\
4r
=13||
*M3/4
8E/L
8BB/J
8BB/L
8BB/J
8BB/
8r
=14||
*M2/4
16C#/LL
16C#/J
8E/J
8E\L
8E\J
=15
8C#/L
8C#/J
8C#/L
8C#/J
=16
8BB/L
8BB/J
8.BB/L
16BB/Jk
=17||
*M3/4
2BB/
4r
==:|!
*-
